X:1
T:Shoulder of Mutton, The
M:6/8
L:1/8
R:Jig
B:William Vickers’ 1770 music manuscript collection (1770, Northumberland)
N:  http://www.farnearchive.com/show_images.asp?id=R0312102&image=1
Z:AK/Fiddler’s Companion
K:D
B|AdA FDF|BdB GEG|AdA FDF|ECE D2:|
|:dfa afd|efg gec|dfa afd|gec d2:|

